X: 2
T: Vliaikainen
C: Matti Jurva
M: C|
L: 1/8
K: Em
|: B,B, | "Em"E2EF G2FE | "Am"F2G2 A2BA | "Em"G2FE "B7"F2E^D | "Em"E4 z2 :|
|: Bc | "E7"d2d2 d2cB | "Am"c2c2 c2AB | "D7"c2c2 c2BA | "G"B2B2 B2GA |
| "Em(C)"B2B2 B2AG | "Am"A2A2 "B7"A2BA | "Em"G2FE "B7"F2E^D | "Em"E4 z2 :|
